X: 37436
T: Sliabh Luachra, The
R: polka
M: 2/4
K: Dmajor
Bc|:dA BA|dA Bd|~B2 Bd|e2 ef/e/|
df Bd|Ad FD|~E2 EF|1 DE FA:|2 D2 D>E||
|:FA AB|Ad dB|AF ED|E2 ED/E/|
FA AB|Ad dB|AF EF|1 D2 D>E:|2 DE FA||

